X: 795
T: Aksak Opus
R: three-two
M: 3/2
K: Aminor
M:5/8
A|:ef e2 G|de d2 F|cd BcB|EB A2A|
[1 ef e2G|de d2 d|cB cgB|AA A2A:|
[2 gf fee|de d2d|cB cgB|AA A3||
|:GA G2F|EF E2 E|cB c2e|dc B3|
[1 fe fag|ed c3|ef ecA|EB A3:|
[2 fe fff|ed c3|ef ecA|EB A2||

